static/icons/category-hazer.svg

<?xml version="1.0" encoding="UTF-8" standalone="no"?>
<svg
   xmlns:dc="http://purl.org/dc/elements/1.1/"
   xmlns:cc="http://creativecommons.org/ns#"
   xmlns:rdf="http://www.w3.org/1999/02/22-rdf-syntax-ns#"
   xmlns:svg="http://www.w3.org/2000/svg"
   xmlns="http://www.w3.org/2000/svg"
   xmlns:sodipodi="http://sodipodi.sourceforge.net/DTD/sodipodi-0.dtd"
   xmlns:inkscape="http://www.inkscape.org/namespaces/inkscape"
   version="1.1"
   width="24"
   height="24"
   viewBox="0 0 24 24"
   id="svg4"
   sodipodi:docname="weather-fog.svg"
   inkscape:version="0.92.1 unknown">
  <metadata
     id="metadata10">
    <rdf:RDF>
      <cc:Work
         rdf:about="">
        <dc:format>image/svg+xml</dc:format>
        <dc:type
           rdf:resource="http://purl.org/dc/dcmitype/StillImage" />
        <dc:title></dc:title>
      </cc:Work>
    </rdf:RDF>
  </metadata>
  <defs
     id="defs8" />
  <sodipodi:namedview
     pagecolor="#ffffff"
     bordercolor="#666666"
     borderopacity="1"
     objecttolerance="10"
     gridtolerance="10"
     guidetolerance="10"
     inkscape:pageopacity="0"
     inkscape:pageshadow="2"
     inkscape:window-width="640"
     inkscape:window-height="480"
     id="namedview6"
     showgrid="false"
     inkscape:snap-smooth-nodes="true"
     inkscape:zoom="1.953125"
     inkscape:cx="52.23418"
     inkscape:cy="37.119323"
     inkscape:current-layer="svg4">
    <inkscape:grid
       type="xygrid"
       id="grid4538" />
  </sodipodi:namedview>
  <path
     style="stroke-width:0.90909094"
     d="M 12.091797 2.5175781 C 9.6372518 2.5175781 7.5458096 4.0179329 6.6367188 6.1542969 A 4.5454546 4.5454546 0 0 0 2.0917969 10.699219 A 4.5454546 4.5454546 0 0 0 6.6367188 15.246094 L 7.9667969 15.246094 C 7.6780924 14.684095 7.4968312 14.070857 7.4824219 13.427734 L 6.6367188 13.427734 A 2.7272728 2.7272728 0 0 1 3.9082031 10.699219 A 2.7272728 2.7272728 0 0 1 6.6367188 7.9726562 C 6.9730823 7.9726563 7.2996094 8.0354404 7.5996094 8.1445312 C 7.9541548 5.989985 9.8190698 4.3359375 12.091797 4.3359375 A 4.5454546 4.5454546 0 0 1 16.414062 7.484375 C 16.549538 7.4759381 16.68496 7.4728378 16.822266 7.4785156 C 17.265114 7.5170781 17.62983 7.5748063 17.955078 7.6425781 C 17.554984 4.7513569 15.086976 2.5175781 12.091797 2.5175781 z M 20.128906 8.3867188 L 19.21875 9.9628906 A 1.8181818 1.8181818 0 0 1 20.273438 11.609375 A 1.8181818 1.8181818 0 0 1 19.914062 12.689453 C 20.464318 12.954354 20.954971 13.325622 21.363281 13.783203 A 3.6363637 3.6363637 0 0 0 22.091797 11.609375 A 3.6363637 3.6363637 0 0 0 20.128906 8.3867188 z "
     id="path4527" />
  <path
     d="m 15,15 c 0.954546,-1.653321 3.127768,-2.235634 4.781089,-1.281089 1.653322,0.954546 2.235635,3.127768 1.281089,4.781089 z m 0,0 c -0.954545,1.653321 -3.127767,2.235634 -4.781089,1.281089 C 8.5655903,15.326543 7.983277,13.153321 8.9378226,11.5 Z m 0,0 C 13.346679,14.045455 12.764366,11.872232 13.718911,10.218911 14.673457,8.5655899 16.846679,7.9832767 18.5,8.9378222 Z m 0,0 c 1.653322,0.954546 2.235635,3.127767 1.281089,4.781089 C 15.326544,21.43441 13.153322,22.016723 11.5,21.062178 Z"
     id="path2-3"
     inkscape:connector-curvature="0"
     style="fill:#000000;stroke-width:0.63636363" />
</svg>

<svg xmlns="http://www.w3.org/2000/svg" version="1.1" viewBox="0 0 24 24">
  <path d="m12.092 2.5176c-2.4547 0-4.5462 1.5003-5.4553 3.6367a4.5455 4.5455 0 0 0 -4.5449 4.5447 4.5455 4.5455 0 0 0 4.5449 4.547h1.3301c-.2887-.562-0.47-1.175-.4844-1.818h-.8457a2.7273 2.7273 0 0 1 -2.7285 -2.729 2.7273 2.7273 0 0 1 2.7285 -2.7263c.3364 0 .6629.0627.9629.1718.3546-2.1545 2.2195-3.8086 4.4924-3.8086a4.5455 4.5455 0 0 1 4.322 3.1485c.136-.0085.271-.0116.408-.0059.443.0386.808.0963 1.133.1641-0.4-2.8912-2.868-5.125-5.863-5.125zm8.037 5.8691l-.910 1.5762a1.8182 1.8182 0 0 1 1.054 1.6461 1.8182 1.8182 0 0 1 -.359 1.08c.550.265 1.041.637 1.449 1.094a3.6364 3.6364 0 0 0 .729 -2.174 3.6364 3.6364 0 0 0 -1.963 -3.2223zm-3.617.1016c-1.125.0828-2.197.6971-2.793 1.7307-.955 1.653-.372 3.826 1.281 4.781l3.5-6.0625c-.620-.3580-1.314-.4989-1.988-.4492zm-1.512 6.5117l6.062 3.5c.955-1.653.373-3.827-1.281-4.781-1.653-.955-3.826-.372-4.781 1.281zl-3.5 6.062c1.653.955 3.827.373 4.781-1.281.955-1.653.372-3.826-1.281-4.781zl-6.0625-3.5c-.9545 1.653-.3721 3.827 1.2815 4.781 1.653.955 3.826.372 4.781-1.281z"/>
</svg>
